X:668
T:Boney Crossing the Alps
O:england
M:4/4
A:North-West
R:Hornpipe
K:F
dc|\
BcAB GFDG| FDCD F2Ac| dfeg fdcB| A2F2 F2 dc|\
BcAB GFDG| FDCD F2Ac| dfeg fdcA| G2G2 G2::\
d^f|\
gdga gbag| fdcA F2ce| fcfg facB| A2F2 F2 BA|\
GDGD GBAG| FDCD FGAc| dfeg fdcA| G2G2 G2:|


